kora/panel/16/guitarix-tray.svg

<svg xmlns="http://www.w3.org/2000/svg" width="16" height="16" version="1.1">
 <defs>
  <style id="current-color-scheme" type="text/css">
   .ColorScheme-Text { color:#dfdfdf; } .ColorScheme-Highlight { color:#4285f4; }
  </style>
 </defs>
 <path style="fill:currentColor" class="ColorScheme-Text" d="M 1.7011719 5 C 1.3133718 5 1 5.343455 1 5.7695312 L 1 14.230469 C 1 14.656545 1.3133718 15 1.7011719 15 L 14.298828 15 C 14.686628 15 15 14.656545 15 14.230469 L 15 5.7695312 C 15 5.3434548 14.686628 5 14.298828 5 L 1.7011719 5 z M 5 7 A 3 3 0 0 1 8 10 A 3 3 0 0 1 11 7 A 3 3 0 0 1 14 10 A 3 3 0 0 1 11 13 A 3 3 0 0 1 8 10 A 3 3 0 0 1 5 13 A 3 3 0 0 1 2 10 A 3 3 0 0 1 5 7 z M 5 9 A 1 1 0 0 0 4 10 A 1 1 0 0 0 5 11 A 1 1 0 0 0 6 10 A 1 1 0 0 0 5 9 z M 11 9 A 1 1 0 0 0 10 10 A 1 1 0 0 0 11 11 A 1 1 0 0 0 12 10 A 1 1 0 0 0 11 9 z"/>
 <path style="fill:currentColor" class="ColorScheme-Text" d="M 1.7011719 1 C 1.3133718 1 1 1.2558208 1 1.5722656 L 1 4.4277344 C 1 4.7441793 1.3133718 5 1.7011719 5 L 14.298828 5 C 14.686628 5 15 4.7441792 15 4.4277344 L 15 1.5722656 C 15 1.2558208 14.686628 1 14.298828 1 L 1.7011719 1 z M 2.7460938 2 L 13.253906 2 C 13.667507 2 14 2.201872 14 2.4511719 L 14 3.5488281 C 14 3.798128 13.667507 4 13.253906 4 L 2.7460938 4 C 2.3324929 4 2 3.798128 2 3.5488281 L 2 2.4511719 C 2 2.2018719 2.332493 2 2.7460938 2 z M 3.4003906 2.5996094 A 0.4 0.4 0 0 0 3 3 A 0.4 0.4 0 0 0 3.4003906 3.4003906 A 0.4 0.4 0 0 0 3.8007812 3 A 0.4 0.4 0 0 0 3.4003906 2.5996094 z M 5 2.5996094 A 0.4 0.4 0 0 0 4.5996094 3 A 0.4 0.4 0 0 0 5 3.4003906 A 0.4 0.4 0 0 0 5.4003906 3 A 0.4 0.4 0 0 0 5 2.5996094 z M 6.4003906 2.5996094 A 0.4 0.4 0 0 0 6 3 A 0.4 0.4 0 0 0 6.4003906 3.4003906 A 0.4 0.4 0 0 0 6.8007812 3 A 0.4 0.4 0 0 0 6.4003906 2.5996094 z M 12.199219 2.5996094 L 12.199219 3.4003906 L 13 3.4003906 L 13 2.5996094 L 12.199219 2.5996094 z"/>
</svg>

<svg xmlns="http://www.w3.org/2000/svg" width="16" height="16" viewBox="0 0 16 16">
 <defs>
  <style id="current-color-scheme" type="text/css">
   .ColorScheme-Text { color:#dfdfdf; } .ColorScheme-Highlight { color:#4285f4; } .ColorScheme-NeutralText { color:#ff9800; } .ColorScheme-PositiveText { color:#4caf50; } .ColorScheme-NegativeText { color:#f44336; }
  </style>
 </defs>
 <path style="opacity:0.3;fill:currentColor" class="ColorScheme-Text" d="m1.701 5c-.388 0-.701.343-.701.77v8.46c0 .427.313.77.701.77h12.598c.388 0 .701-.343.701-.77v-8.46c0-.427-.313-.77-.701-.77zm3.299 2c1.646 0 3 1.354 3 3 0-1.646 1.354-3 3-3s3 1.354 3 3-1.354 3-3 3-3-1.354-3-3c0 1.646-1.354 3-3 3s-3-1.354-3-3 1.354-3 3-3zm0 2c-.549 0-1 .451-1 1s.451 1 1 1 1-.451 1-1-.451-1-1-1zm6 0c-.549 0-1 .451-1 1s.451 1 1 1 1-.451 1-1-.451-1-1-1z" fill-opacity=".5"/>
 <path style="fill:currentColor" class="ColorScheme-Text" d="m1.701 1c-.388 0-.701.256-.701.572v2.856c0 .316.313.572.701.572h12.598c.388 0 .701-.256.701-.572v-2.856c0-.316-.313-.572-.701-.572zm1.045 1h10.508c.414 0 .746.202.746.451v1.098c0 .249-.332.451-.746.451h-10.508c-.414 0-.746-.202-.746-.451v-1.098c0-.249.332-.451.746-.451zm.655.6h-.001c-.219 0-.4.18-.4.4s.181.4.4.4h.001c.219 0 .4-.18.4-.4s-.181-.4-.4-.4zm1.599 0c-.22 0-.4.18-.4.4s.18.4.4.4.4-.18.4-.4-.18-.4-.4-.4zm1.401 0h-.001c-.219 0-.4.18-.4.4s.181.4.4.4h.001c.219 0 .4-.18.4-.4s-.181-.4-.4-.4zm5.798 0v.8h.801v-.8z"/>
</svg>
